X: 23156
T: Le Canal En Octobre
R: barndance
M: 4/4
K: Gmajor
|:DG2A2|B3B cBAG|B3B cBAG|EFGB A3G|
FGEF D2GA|B3B cBAG|B3B cBAG|EFGB A3G|G6:|
|:DB2c2|d3B cBAG|d3B cBAG|EFGB A3G|
FGEF D2Bc|d3B cBAG|d3B cBAG|EFGB A3G|G6:|

